svgs/light/hill-rockslide.svg

<svg xmlns="http://www.w3.org/2000/svg" viewBox="0 0 576 512"><!--! Font Awesome Pro 6.3.0 by @fontawesome - https://fontawesome.com License - https://fontawesome.com/license (Commercial License) Copyright 2023 Fonticons, Inc. --><path d="M238.5 127.7c-5.5-9.7-5.5-21.6 0-31.4l27-48C271.1 38.2 281.8 32 293.4 32h53.3c11.6 0 22.2 6.2 27.9 16.3l27 48c5.5 9.7 5.5 21.6 0 31.4l-27 48c-5.7 10.1-16.3 16.3-27.9 16.3H293.4c-11.6 0-22.2-6.2-27.9-16.3l-27-48zM293.4 64l-27 48 27 48 53.3 0 27-48-27-48-53.3 0zM32 118.6L32 448c0 17.7 14.3 32 32 32H393.4L32 118.6zm-32 0C0 90.1 34.5 75.8 54.6 96L416 457.4c20.2 20.2 5.9 54.6-22.6 54.6H64c-35.3 0-64-28.7-64-64V118.6zM432.3 406.5c-10.1-5.7-16.3-16.3-16.3-27.9V325.4c0-11.6 6.2-22.2 16.3-27.9l48-27c9.7-5.5 21.6-5.5 31.4 0l48 27c10.1 5.7 16.3 16.3 16.3 27.9v53.3c0 11.6-6.2 22.2-16.3 27.9l-48 27c-9.7 5.5-21.6 5.5-31.4 0l-48-27zm63.7-.9l48-27V325.4l-48-27-48 27v53.3l48 27zM128 64a32 32 0 1 1 64 0 32 32 0 1 1 -64 0zM352 256a32 32 0 1 1 0 64 32 32 0 1 1 0-64z"/></svg>

<svg xmlns="http://www.w3.org/2000/svg" viewBox="0 0 576 512"><!--! Font Awesome Pro 6.2.0 by @fontawesome - https://fontawesome.com License - https://fontawesome.com/license (Commercial License) Copyright 2022 Fonticons, Inc. --><path d="M238.5 127.7C232.1 117.9 232.1 106.1 238.5 96.31L265.5 48.31C271.1 38.24 281.8 32 293.4 32H346.6C358.2 32 368.9 38.24 374.5 48.31L401.5 96.31C407 106.1 407 117.9 401.5 127.7L374.5 175.7C368.9 185.8 358.2 192 346.6 192H293.4C281.8 192 271.1 185.8 265.5 175.7L238.5 127.7zM293.4 64L266.4 112L293.4 160H346.6L373.6 112L346.6 64H293.4zM0 118.6C0 90.12 34.47 75.84 54.63 96L416 457.4C436.2 477.5 421.9 512 393.4 512H64C28.65 512 0 483.3 0 448V118.6zM32 118.6V448C32 465.7 46.33 480 64 480H393.4L32 118.6zM416 378.6V325.4C416 313.8 422.2 303.1 432.3 297.5L480.3 270.5C490.1 264.1 501.9 264.1 511.7 270.5L559.7 297.5C569.8 303.1 576 313.8 576 325.4V378.6C576 390.2 569.8 400.9 559.7 406.5L511.7 433.5C501.9 439 490.1 439 480.3 433.5L432.3 406.5C422.2 400.9 416 390.2 416 378.6zM544 378.6V325.4L496 298.4L448 325.4V378.6L496 405.6L544 378.6zM192 64C192 81.67 177.7 96 160 96C142.3 96 128 81.67 128 64C128 46.33 142.3 32 160 32C177.7 32 192 46.33 192 64zM320 288C320 270.3 334.3 256 352 256C369.7 256 384 270.3 384 288C384 305.7 369.7 320 352 320C334.3 320 320 305.7 320 288z"/></svg>
